assets/icons/greenStar.svg

<svg width="18" height="18" viewBox="0 0 18 18" fill="none" xmlns="http://www.w3.org/2000/svg">
<path d="M10.3315 1.71056L11.8066 4.68521C12.0078 5.09929 12.5441 5.49647 12.9968 5.57252L15.6704 6.02041C17.3803 6.30774 17.7826 7.55844 16.5505 8.79224L14.4719 10.888C14.1199 11.2429 13.9272 11.9274 14.036 12.4176L14.6312 15.0119C15.1005 17.0655 14.0193 17.8599 12.2173 16.7866L9.71125 15.2908C9.25869 15.0204 8.51274 15.0204 8.05171 15.2908L5.5457 16.7866C3.75207 17.8599 2.66249 17.057 3.13185 15.0119L3.72693 12.4176C3.83588 11.9274 3.64312 11.2429 3.29109 10.888L1.2125 8.79224C-0.0111855 7.55844 0.382743 6.30774 2.09255 6.02041L4.76622 5.57252C5.21044 5.49647 5.74685 5.09929 5.948 4.68521L7.42312 1.71056C8.22774 0.0964798 9.53522 0.0964798 10.3315 1.71056Z" stroke="#56862A" stroke-linecap="round" stroke-linejoin="round"/>
</svg>

<svg xmlns="http://www.w3.org/2000/svg" width="18" height="18" fill="none" viewBox="0 0 18 18"><path stroke="#56862a" stroke-linecap="round" stroke-linejoin="round" d="m10.332 1.71 1.475 2.975c.2.414.737.811 1.19.888l2.673.447c1.71.288 2.113 1.538.88 2.772l-2.078 2.096c-.352.355-.545 1.04-.436 1.53l.595 2.594c.47 2.053-.612 2.848-2.414 1.775L9.711 15.29c-.452-.27-1.198-.27-1.66 0l-2.505 1.496c-1.794 1.073-2.884.27-2.414-1.775l.595-2.594c.109-.49-.084-1.175-.436-1.53L1.213 8.792c-1.224-1.234-.83-2.484.88-2.772l2.673-.447c.444-.077.98-.474 1.182-.888l1.475-2.974c.805-1.615 2.112-1.615 2.909 0"/></svg>
